X:1
T:Chas. H. Gabriel
T:E. E. Hewitt
T:Grace to Help Me
%%score { ( 1 2 ) | ( 3 4 ) }
L:1/8
M:4/4
K:G
V:1 treble 
V:2 treble 
V:3 bass 
V:4 bass 
V:1
{/x} DD | G2 G2 GFGA | B2 B2 B2 GG | A2 A2 A^GAB | c2 c2 c2 AA | B2 B2 dBAG | %6
w: When a|con\- trite sin\- ner to the|Lord I came, Peace I|found be\- liev\- ing in His|pre\- cious name; Now I'm|ev\- er prov\- ing when for|
w: In the|dai\- ly war\- fare that I|wage with sin, He hath|pow'r to give me vic\- to\-|ry with\- in; In His|might\- y Spir\- it there is|
w: In my|lack of wis\- dom, as His|work I do, Look\- ing|to my Sav\- ior brings me|gui\- dance tree; Rich\- ly|will He bless me, as I|
w: Some\- times|ros\- es spar\- kle with the|dew\- drops bright; Some\- times|rain\- drops fall a\- mid the|chill\- y night; Thro' the|shade and sun\- shine He will|
 e2 e2[Q:1/4=48]"^Largo" !fermata!d2[Q:1/4=120]"^Allegretto" Bc | ddde dBAG | B2 A2 G4 | %9
w: strength I plead, There is|al\- ways grace to help me in my|time of need.|
w: strength in\- deed; * *|||
w: sow the seed, * *|||
w: gent\- ly lead, * *|||
"^Chorus" d3 d dBGE | G2 G2 G4 | d3 d dBGB | A2 A2 A2 DD | G2 G2 BGBc | %14
w: Grace to help me, O how|rich and sweet!|Grace to help me at the|mer\- cy\- seat! When the|name of Je\- sus at the|
w: |||||
w: |||||
w: |||||
 e2 e2[Q:1/4=48]"^Largo" !fermata!d2[Q:1/4=120]"^Allegretto" Bc | ddde dBAG | B2 A2 G4 |] %17
w: throne I plead, There is|al\- ways grace to help me in my|time of need.|
w: |||
w: |||
w: |||
V:2
 B,B, | B,2 B,2 B,CDD | D2 D2 D2 DD | F2 F2 F=F^F=G | F2 F2 F2 FF | G2 G2 GGDG | G2 G2 G2 GG | %7
 GGGG GGGG | G2 D2 D4 | G3 G GDDC | B,2 C2 B,4 | G3 G GDDD | D2 ^C2 D2 =CC | B,2 B,2 DDGG | %14
 G2 G2 G2 GG | GGGG GGGG | G2 D2 D4 |] %17
V:3
 G,G, | D,2 D,2 D,D,G,F, | G,2 G,2 G,2 B,B, | D2 D2 DDDD | A,2 A,2 A,2 DD | D2 D2 B,DCB, | %6
 C2 C2 B,2 DA, | B,B,B,C B,D^CB, | D2 C2 B,4 | B,3 B, B,G,G,G, | G,2 E,2 D,4 | B,3 B, B,G,B,G, | %12
 A,2 G,2 F,2 F,F, | D,2 D,2 G,B,DB, | C2 C2 B,2 B,A, | B,B,B,C B,D^CB, | D2 C2 B,4 |] %17
V:4
 G,,G,, | G,,2 G,,2 G,,A,,B,,D, | G,2 G,2 G,2 G,G, | D,2 D,2 D,D,D,D, | D,2 D,2 D,2 D,D, | %5
 G,2 G,2 G,G,G,G, | C,D,E,F, !fermata!G,2 G,G, | G,G,G,G, G,G,E,E, | D,2 D,2 G,,4 | %9
 G,3 G, G,G,B,,B,, | G,,2 G,,2 G,,4 | G,3 G, G,G,G,G, | F,2 E,2 D,2 D,D, | G,,2 G,,2 G,,G,,G,G, | %14
 C,D,E,F, !fermata!G,2 G,G, | G,G,G,G, G,G,E,E, | D,2 D,2 G,,4 |] %17

